X:1
T:Holy Faith, 88.88.88
T:Holy Faith, 88.88.88
T:George Clement Martin, 1889
T:Public Domain Courtesy of the Cyber Hymnal™
C:George Clement Martin, 1889
Z:Public Domain
Z:Courtesy of the Cyber Hymnal™
%%score ( 1 2 ) ( 3 4 )
L:1/8
M:4/4
K:D
V:1 treble 
V:2 treble 
V:3 bass 
V:4 bass 
V:1
 [DF]2 [DF]2 F2 | [FA]4 [EG]2 | [DF]4 [CE]2 | D6 | [CA]2 [FA]2 [EA]2 | [Fc]4 [FB]2 | [EA]4 [D^G]2 | %7
 [CA]6 | [GB]2 [FB]2 [EB]2 | ([DE]2 [CF]2) [B,G]2 | A4 [CF]2 | D6 | [B,G]2 [EG]2 [DG]2 | %13
 ([CB]2 [DA]2) [EG]2 | [DF]4 [DA]2 | d4 [F=c]2 | [B,DGB]2 [B,DGB]2 [B,^DGB]2 | [B,EGB]4 [B,=FGB]2 | %18
 [=CEG=c]4 [B,DGB]2 | [A,DFA]6 | D2 D2 [DE]2 | ([CF]2 [B,G]2) [A,A]2 | [A,D]4 [A,C]2 | [A,D]6 |] %24
V:2
 x4 F2 | x6 | x6 | D6 | x6 | x6 | x6 | x6 | x6 | x6 | (A,2 B,2) x2 | D6 | x6 | x6 | x6 | D2 E2 x2 | %16
 x6 | x6 | x6 | x6 | D2 D2 x2 | x6 | x6 | x6 |] %24
V:3
 [D,A,]2 [B,,D]2 [A,,C]2 | [G,,B,]4 [G,,B,]2 | [A,,A,]4 [A,,G,]2 | [D,F,]6 | %4
 [F,A,]2 [D,A,]2 [C,A,]2 | [B,,E]4 [B,,D]2 | [E,C]4 [E,B,]2 | [A,,A,]6 | [E,G,]2 [F,A,]2 [G,B,]2 | %9
 (B,2 A,2) [A,,G,]2 | (F,2 G,2) [A,,A,]2 | [B,,F,]6 | [E,G,]2 [F,A,]2 [G,B,]2 | %13
 ([A,,G,]2 [B,,F,]2) [C,A,]2 | [D,A,]4 [=C,F,]2 | ([D,G,]4 [D,A,]2) | [G,,G,]4 [F,,F,]2 | %17
 [E,,E,]4 [D,,D,]2 | [=C,,E,]4 [G,,G,]2 | [D,,D,]6 | [D,F,]2 [C,F,]2 [B,,G,]2 | %21
 ([A,,A,]2 [G,,D,]2) [F,,D,]2 | [A,,F,]4 [A,,E,]2 | [D,F,]6 |] %24
V:4
 x6 | x6 | x6 | x6 | x6 | x6 | x6 | x6 | x6 | A,,4 x2 | D,4 x2 | x6 | x6 | x6 | x6 | x6 | x6 | x6 | %18
 x6 | x6 | x6 | x6 | x6 | x6 |] %24

